packages/core/src/svgs/atom.svg

<svg width="24" height="24" viewBox="0 0 24 24" fill="none" xmlns="http://www.w3.org/2000/svg">
<g clip-path="url(#clip0_31_6324)">
<path d="M0 0H24V24H0V0Z" fill="url(#paint0_linear_31_6324)"/>
<path d="M12.0001 17.4256C12.7126 17.4256 13.4181 17.2853 14.0764 17.0126C14.7347 16.74 15.3328 16.3403 15.8366 15.8365C16.3404 15.3327 16.7401 14.7345 17.0128 14.0763C17.2854 13.418 17.4258 12.7124 17.4258 11.9999C17.4258 11.2874 17.2854 10.5819 17.0128 9.9236C16.7401 9.26532 16.3404 8.6672 15.8366 8.16337C15.3328 7.65955 14.7347 7.25989 14.0764 6.98723C13.4181 6.71456 12.7126 6.57422 12.0001 6.57422C10.5611 6.57422 9.18101 7.14586 8.1635 8.16337C7.14598 9.18089 6.57434 10.5609 6.57434 11.9999C6.57434 13.4389 7.14598 14.819 8.1635 15.8365C9.18101 16.854 10.5611 17.4256 12.0001 17.4256Z" fill="#2C3154"/>
<path d="M12 3.66881C11.8277 3.66881 11.583 3.81795 11.3177 4.34338C11.0648 4.84481 10.8467 5.56652 10.6748 6.42623C10.3363 8.13452 10.1798 10.2739 10.1798 12.0002V12.0011C10.1737 13.8702 10.3394 15.7359 10.6748 17.5747C10.8527 18.4318 11.0648 19.1561 11.322 19.6554L11.3233 19.6571C11.5894 20.1842 11.829 20.3317 12.0004 20.3317C12.1723 20.3317 12.417 20.1825 12.6823 19.6571C12.9351 19.1557 13.1533 18.4344 13.3251 17.5742C13.6637 15.8659 13.8206 13.7265 13.8206 12.0002C13.8206 10.2791 13.6693 8.13452 13.3256 6.42752C13.1477 5.57038 12.9356 4.84481 12.6776 4.34466L12.6767 4.34338C12.4106 3.81623 12.1714 3.66881 12 3.66881ZM10.935 4.15009C11.2123 3.60152 11.565 3.24023 12 3.24023C12.4363 3.24023 12.783 3.60281 13.059 4.14966C13.344 4.70252 13.5651 5.47395 13.7451 6.34095L13.7456 6.34223C14.0966 8.08566 14.2491 10.2602 14.2491 12.0002C14.2491 13.7462 14.0906 15.9148 13.7456 17.6574C13.5703 18.5334 13.3431 19.2992 13.065 19.8504C12.7877 20.3989 12.4354 20.7602 12 20.7602C11.5637 20.7602 11.2174 20.3977 10.941 19.8508C10.6564 19.2979 10.4348 18.5265 10.2548 17.6595L10.2536 17.6544C9.91316 15.7889 9.74502 13.8961 9.75127 11.9998C9.75127 10.2538 9.90898 8.08566 10.2544 6.34266C10.4297 5.46666 10.6568 4.70123 10.935 4.15009Z" fill="#A3A9D0"/>
<path d="M4.78502 7.83196C4.69888 7.98367 4.70959 8.26781 5.02631 8.76024C5.44886 9.35279 5.94578 9.88861 6.50488 10.3545L6.50702 10.3558C7.93158 11.568 9.46461 12.6465 11.0867 13.5778L11.0876 13.5782C12.7054 14.5172 14.4061 15.3053 16.1683 15.9328L16.1704 15.9337C16.8544 16.1852 17.5676 16.3485 18.2927 16.4201C18.8816 16.4458 19.1293 16.3142 19.215 16.1685C19.3012 16.0168 19.2904 15.7327 18.9737 15.2402C18.5511 14.6477 18.054 14.1118 17.4947 13.646L17.493 13.6447C16.0684 12.4326 14.5354 11.354 12.9133 10.4227L12.9124 10.4222C11.2952 9.48367 9.59501 8.69578 7.83345 8.06853C7.00545 7.78867 6.27345 7.61167 5.71202 7.58081C5.11973 7.55424 4.87073 7.68581 4.78502 7.83196ZM19.4006 16.2757L19.5857 16.3837C19.3672 16.7578 18.8786 16.8752 18.2679 16.8478H18.2623L18.2567 16.847C17.4937 16.7724 16.7434 16.6008 16.0239 16.3361C14.2373 15.6999 12.5131 14.9009 10.8729 13.949C9.22849 13.005 7.67437 11.9118 6.23016 10.6832C5.64173 10.1929 5.11886 9.62882 4.67445 9.00496L4.67145 9.00024L4.66888 8.99596C4.33759 8.48253 4.19616 7.99781 4.41302 7.6181L4.41431 7.61639C4.63288 7.24224 5.12145 7.12481 5.73216 7.15224H5.73431C6.35445 7.18653 7.13016 7.3781 7.9723 7.66224L7.9753 7.66353C9.76215 8.29961 11.4867 9.09869 13.1272 10.0507C14.7716 10.9949 16.3257 12.0884 17.7699 13.3172C18.3583 13.8075 18.8811 14.3714 19.3256 14.9951L19.3286 14.9994L19.3312 15.0037C19.6624 15.5171 19.8039 16.0018 19.5866 16.3815L19.4006 16.2752V16.2757Z" fill="#A3A9D0"/>
<path d="M18.2927 7.58039C17.5675 7.65168 16.8543 7.81514 16.1704 8.06681L16.1683 8.06767C14.4061 8.69511 12.7054 9.48329 11.0876 10.4222L11.0867 10.4227C9.46509 11.3538 7.9325 12.4321 6.5083 13.6438C5.85387 14.2181 5.3383 14.7667 5.02844 15.2372C4.70958 15.7314 4.69844 16.0168 4.78501 16.1685C4.87073 16.3142 5.12358 16.4458 5.7073 16.4201C6.43252 16.3488 7.1457 16.1853 7.82958 15.9337L7.83173 15.9328C9.59391 15.3054 11.2946 14.5172 12.9124 13.5782L12.9133 13.5778C14.5349 12.6468 16.0675 11.5687 17.4917 10.3571C18.1466 9.78281 18.6617 9.23381 18.9716 8.76324C19.29 8.2691 19.3016 7.9841 19.215 7.83196C19.1293 7.68624 18.8764 7.55467 18.2927 7.58039ZM4.59944 16.2761L4.41344 16.382C4.19615 16.0022 4.33758 15.5175 4.66887 15.0041L4.67015 15.002C5.01044 14.4855 5.55858 13.9065 6.22673 13.3202L6.2293 13.3181C7.67376 12.0892 9.22816 10.9958 10.8729 10.0515C12.5129 9.09964 14.237 8.30056 16.0234 7.66439C16.7432 7.39954 17.4938 7.22772 18.2572 7.1531L18.2627 7.15224H18.2683C18.873 7.12481 19.3676 7.24224 19.5862 7.61639L19.587 7.6181C19.8043 7.99781 19.6629 8.48253 19.3316 8.99639L19.3303 8.9981C18.9896 9.51453 18.4419 10.0935 17.7737 10.6798L17.7712 10.682C16.3267 11.911 14.7723 13.0046 13.1276 13.949C11.4875 14.9009 9.7634 15.6999 7.97701 16.3361C7.25736 16.6006 6.50685 16.7722 5.74373 16.8465L5.73815 16.8474H5.73258C5.12744 16.8748 4.63287 16.7578 4.41473 16.3832L4.59987 16.2752L4.59944 16.2761Z" fill="#A3A9D0"/>
<path d="M12 13.085C12.2878 13.085 12.5638 12.9707 12.7673 12.7672C12.9708 12.5636 13.0851 12.2876 13.0851 11.9998C13.0851 11.712 12.9708 11.436 12.7673 11.2325C12.5638 11.029 12.2878 10.9147 12 10.9147C11.7122 10.9147 11.4362 11.029 11.2327 11.2325C11.0291 11.436 10.9148 11.712 10.9148 11.9998C10.9148 12.2876 11.0291 12.5636 11.2327 12.7672C11.4362 12.9707 11.7122 13.085 12 13.085ZM5.76039 10.9147C5.86727 10.9147 5.9731 10.8936 6.07184 10.8527C6.17058 10.8118 6.2603 10.7519 6.33587 10.6763C6.41145 10.6008 6.4714 10.511 6.5123 10.4123C6.5532 10.3135 6.57425 10.2077 6.57425 10.1008C6.57425 9.99396 6.5532 9.88813 6.5123 9.78939C6.4714 9.69065 6.41145 9.60093 6.33587 9.52536C6.2603 9.44978 6.17058 9.38984 6.07184 9.34894C5.9731 9.30804 5.86727 9.28698 5.76039 9.28698C5.54454 9.28698 5.33753 9.37273 5.18491 9.52536C5.03228 9.67799 4.94653 9.88499 4.94653 10.1008C4.94653 10.3167 5.03228 10.5237 5.18491 10.6763C5.33753 10.829 5.54454 10.9147 5.76039 10.9147ZM10.6435 18.5107C10.7526 18.5142 10.8613 18.4958 10.9632 18.4565C11.065 18.4172 11.1579 18.3578 11.2363 18.2819C11.3147 18.206 11.3771 18.1151 11.4197 18.0145C11.4623 17.914 11.4842 17.806 11.4842 17.6968C11.4842 17.5877 11.4623 17.4796 11.4197 17.3791C11.3771 17.2786 11.3147 17.1877 11.2363 17.1118C11.1579 17.0359 11.065 16.9765 10.9632 16.9372C10.8613 16.8979 10.7526 16.8794 10.6435 16.883C10.4323 16.8898 10.2319 16.9786 10.0849 17.1305C9.93787 17.2824 9.85566 17.4855 9.85566 17.6968C9.85566 17.9082 9.93787 18.1113 10.0849 18.2632C10.2319 18.4151 10.4323 18.5038 10.6435 18.5107ZM16.0692 8.74441C16.2851 8.74441 16.4921 8.65867 16.6447 8.50604C16.7974 8.35341 16.8831 8.1464 16.8831 7.93056C16.8831 7.71471 16.7974 7.5077 16.6447 7.35507C16.4921 7.20244 16.2851 7.1167 16.0692 7.1167C15.8534 7.1167 15.6464 7.20244 15.4938 7.35507C15.3411 7.5077 15.2554 7.71471 15.2554 7.93056C15.2554 8.1464 15.3411 8.35341 15.4938 8.50604C15.6464 8.65867 15.8534 8.74441 16.0692 8.74441Z" fill="#F0F3FA"/>
</g>
<defs>
<linearGradient id="paint0_linear_31_6324" x1="4.46486" y1="4.16229" x2="29.2059" y2="32.5787" gradientUnits="userSpaceOnUse">
<stop stop-color="#1A1E21"/>
<stop offset="1" stop-color="#06060A"/>
</linearGradient>
<clipPath id="clip0_31_6324">
<rect width="24" height="24" fill="white"/>
</clipPath>
</defs>
</svg>

<svg xmlns="http://www.w3.org/2000/svg" width="24" height="24" fill="none" viewBox="0 0 24 24"><g clip-path="url(#a)"><path fill="url(#b)" d="M0 0h24v24H0z"/><path fill="#2C3154" d="M12 17.426a5.425 5.425 0 1 0 0-10.85 5.425 5.425 0 0 0 0 10.85"/><path fill="#A3A9D0" d="M12 3.669c-.172 0-.417.149-.682.674-.253.502-.471 1.224-.643 2.083-.339 1.709-.495 3.848-.495 5.574v.001c-.006 1.87.16 3.735.495 5.574.178.857.39 1.581.647 2.08l.001.002c.266.527.506.675.677.675s.417-.15.682-.675c.253-.501.471-1.223.643-2.083.339-1.708.496-3.848.496-5.574 0-1.72-.152-3.865-.495-5.572-.178-.858-.39-1.583-.648-2.083l-.001-.002c-.266-.527-.506-.674-.677-.674m-1.065.481c.277-.548.63-.91 1.065-.91.436 0 .783.363 1.059.91.285.553.506 1.324.686 2.191v.001c.352 1.744.504 3.918.504 5.658 0 1.746-.158 3.915-.503 5.657-.176.876-.403 1.642-.681 2.193-.277.549-.63.91-1.065.91-.436 0-.783-.362-1.059-.91-.285-.552-.506-1.324-.686-2.19l-.001-.006A31 31 0 0 1 9.75 12c0-1.746.158-3.914.503-5.657.176-.876.403-1.642.681-2.193"/><path fill="#A3A9D0" d="M4.785 7.832c-.086.152-.075.436.241.928.423.593.92 1.129 1.479 1.595h.002a30.5 30.5 0 0 0 4.58 3.223 30.5 30.5 0 0 0 5.081 2.355h.002a8.6 8.6 0 0 0 2.123.487c.589.026.836-.106.922-.252.086-.151.075-.435-.241-.928a8.5 8.5 0 0 0-1.48-1.594l-.001-.001a30.5 30.5 0 0 0-4.58-3.222 30.5 30.5 0 0 0-5.08-2.354c-.828-.28-1.56-.457-2.121-.488-.592-.027-.841.105-.927.251m14.616 8.444.185.108c-.219.374-.707.491-1.318.464h-.006l-.005-.001a9 9 0 0 1-2.233-.51 31 31 0 0 1-5.151-2.388 31 31 0 0 1-4.643-3.266 9 9 0 0 1-1.556-1.678L4.671 9l-.002-.004c-.331-.513-.473-.998-.256-1.378l.001-.002c.219-.374.707-.491 1.318-.464h.002c.62.035 1.396.226 2.238.51l.003.002a31 31 0 0 1 5.152 2.387 31 31 0 0 1 4.643 3.266 9 9 0 0 1 1.556 1.678l.003.004.002.005c.331.513.473.998.256 1.377z"/><path fill="#A3A9D0" d="M18.293 7.58a8.6 8.6 0 0 0-2.123.487h-.002a30.5 30.5 0 0 0-5.08 2.355h-.001a30.5 30.5 0 0 0-4.579 3.222c-.654.574-1.17 1.123-1.48 1.593-.318.494-.33.78-.243.932.086.145.339.277.922.251a8.6 8.6 0 0 0 2.123-.486l.002-.001a30.5 30.5 0 0 0 5.08-2.355h.001a30.5 30.5 0 0 0 4.579-3.22c.655-.575 1.17-1.124 1.48-1.595.318-.494.33-.779.243-.931-.086-.146-.339-.277-.922-.252M4.599 16.276l-.186.106c-.217-.38-.075-.865.256-1.378l.001-.002c.34-.517.889-1.096 1.557-1.682l.002-.002a31 31 0 0 1 4.644-3.266 31 31 0 0 1 5.15-2.388 9 9 0 0 1 2.234-.51l.006-.002h.005c.605-.027 1.1.09 1.318.464l.001.002c.217.38.076.865-.255 1.378l-.002.002c-.34.517-.888 1.096-1.556 1.682l-.003.002a31 31 0 0 1-4.643 3.267 31 31 0 0 1-5.151 2.387c-.72.265-1.47.436-2.233.51l-.006.001h-.005c-.606.028-1.1-.09-1.318-.464z"/><path fill="#F0F3FA" d="M12 13.085a1.085 1.085 0 1 0 0-2.17 1.085 1.085 0 0 0 0 2.17m-6.24-2.17a.814.814 0 1 0 0-1.628.814.814 0 0 0 0 1.628m4.884 7.596a.816.816 0 0 0 .592-1.4.814.814 0 1 0-.593 1.4m5.425-9.767a.814.814 0 1 0 0-1.627.814.814 0 0 0 0 1.627"/></g><defs><linearGradient id="b" x1="4.465" x2="29.206" y1="4.162" y2="32.579" gradientUnits="userSpaceOnUse"><stop stop-color="#1A1E21"/><stop offset="1" stop-color="#06060A"/></linearGradient><clipPath id="a"><path fill="#fff" d="M0 0h24v24H0z"/></clipPath></defs></svg>
